public/img/next/main-tentacli-left.svg

<svg width="358" height="625" viewBox="0 0 358 625" fill="none" xmlns="http://www.w3.org/2000/svg">
<path d="M61.1148 244.342C0.35083 302.962 -42.8851 433.342 71.1149 624.342L357.115 614.342C282.615 556.509 147.315 416.842 202.115 320.842C270.615 200.842 233.615 133.342 202.115 100.842C170.615 68.3424 136.447 51.2684 149.115 32.8424C151.874 28.8294 161.704 26.1645 168.115 31.3424C174.484 36.4867 177.445 49.4434 176.615 54.8424C185.782 48.5091 197.615 26.8424 178.615 9.3424C148.68 -18.2288 88.6148 19.3424 133.615 68.3424C178.615 117.342 103.615 203.342 61.1148 244.342Z" fill="url(#paint0_linear_48_2850)" fill-opacity="0.2"/>
<path fill-rule="evenodd" clip-rule="evenodd" d="M177.085 54.5066C178.677 50.476 180.415 44.6358 180.116 39.8426C179.616 31.8426 172.116 14.8426 154.616 18.8426C137.116 22.8426 134.616 40.3426 146.116 52.3426C146.736 52.9902 147.527 53.7878 148.465 54.7337C164.908 71.3132 226.509 133.428 207.116 231.343C200.099 266.77 181.834 295.519 161.927 326.853C123.675 387.062 79.3575 456.818 97.1157 601.843C98.0361 609.36 99.2135 616.511 100.63 623.311L357.116 614.343C282.616 556.509 147.316 416.843 202.116 320.843C270.616 200.843 233.616 133.343 202.116 100.843C192.737 91.1666 183.123 82.8579 174.578 75.4738C154.422 58.0561 140.219 45.7827 149.116 32.8426C151.875 28.8296 161.705 26.1647 168.116 31.3426C174.485 36.4869 177.446 49.4436 176.616 54.8426C176.771 54.735 176.928 54.623 177.085 54.5066Z" fill="white" fill-opacity="0.1"/>
<defs>
<linearGradient id="paint0_linear_48_2850" x1="-9.88513" y1="374.342" x2="266.615" y2="374.342" gradientUnits="userSpaceOnUse">
<stop stop-color="white" stop-opacity="0"/>
<stop offset="1" stop-color="white"/>
</linearGradient>
</defs>
</svg>

<svg width="358" height="625" fill="none" xmlns="http://www.w3.org/2000/svg"><path d="M61.115 244.342c-60.764 58.62-104 189 10 380l286-10c-74.5-57.833-209.8-197.5-155-293.5 68.5-120 31.5-187.5 0-220s-65.668-49.574-53-68c2.759-4.013 12.589-6.677 19-1.5 6.369 5.145 9.33 18.101 8.5 23.5 9.167-6.333 21-28 2-45.5-29.935-27.57-90 10-45 59s-30 135-72.5 176z" fill="url(#a)" fill-opacity=".2"/><path fill-rule="evenodd" clip-rule="evenodd" d="M177.085 54.507c1.592-4.031 3.33-9.871 3.031-14.664-.5-8-8-25-25.5-21s-20 21.5-8.5 33.5c.62.647 1.411 1.445 2.349 2.39 16.443 16.58 78.044 78.695 58.651 176.61-7.017 35.427-25.282 64.176-45.189 95.51-38.252 60.209-82.57 129.965-64.811 274.99.92 7.517 2.097 14.668 3.514 21.468l256.486-8.968c-74.5-57.834-209.8-197.5-155-293.5 68.5-120 31.5-187.5 0-220-9.379-9.676-18.993-17.985-27.538-25.37-20.156-17.417-34.359-29.69-25.462-42.63 2.759-4.013 12.589-6.678 19-1.5 6.369 5.144 9.33 18.1 8.5 23.5.155-.108.312-.22.469-.336z" fill="#fff" fill-opacity=".1"/><defs><linearGradient id="a" x1="-9.885" y1="374.342" x2="266.615" y2="374.342" gradientUnits="userSpaceOnUse"><stop stop-color="#fff" stop-opacity="0"/><stop offset="1" stop-color="#fff"/></linearGradient></defs></svg>
